packages/icons/src/components/Icon/assets/small/passkey.svg

<svg width="16" height="16" viewBox="0 0 16 16" fill="none" xmlns="http://www.w3.org/2000/svg">
<path d="M6.58817 8.76465C8.66267 8.76467 10.434 10.0852 11.1321 11.9443C11.3108 12.4201 10.9261 12.8828 10.4251 12.8828H2.75126C2.2502 12.8828 1.86558 12.4201 2.04423 11.9443C2.74238 10.0852 4.51367 8.76465 6.58817 8.76465Z" />
<path fill-rule="evenodd" clip-rule="evenodd" d="M10.385 3.60254C11.212 2.79963 12.5532 2.79963 13.3802 3.60254C14.2067 4.40542 14.2069 5.70696 13.3802 6.50977C13.2645 6.62207 13.1381 6.71892 13.0052 6.7998V8.2207C13.0051 8.28881 12.9776 8.35418 12.928 8.40234L12.2571 9.05371L12.8186 9.59863C12.922 9.699 12.922 9.86253 12.8186 9.96289L12.0696 10.6895C11.9663 10.7898 11.799 10.7896 11.6956 10.6895L10.8372 9.85645C10.7877 9.80835 10.7592 9.7428 10.7591 9.6748V6.7998C10.6262 6.71893 10.5007 6.62203 10.385 6.50977C9.55811 5.70691 9.55822 4.40546 10.385 3.60254ZM12.6311 4.3291C12.2177 3.9277 11.5476 3.92781 11.1341 4.3291C10.979 4.47965 10.979 4.72348 11.1341 4.87402C11.2891 5.0245 11.5406 5.02455 11.6956 4.87402C11.799 4.77398 11.9663 4.77385 12.0696 4.87402C12.2247 5.02457 12.4761 5.02457 12.6311 4.87402C12.7861 4.72348 12.7861 4.47961 12.6311 4.3291Z" />
<path d="M6.58817 3C7.93069 3 9.01981 4.10623 9.01981 5.4707C9.01975 6.83512 7.93066 7.94141 6.58817 7.94141C5.24588 7.94118 4.15757 6.83498 4.15751 5.4707C4.15751 4.10637 5.24584 3.00023 6.58817 3Z" />
</svg>

<svg xmlns="http://www.w3.org/2000/svg" width="16" height="16" fill="none" viewBox="0 0 16 16">
    <path d="M6.588 8.765c2.075 0 3.846 1.32 4.544 3.18.179.475-.206.938-.707.938H2.751c-.5 0-.885-.463-.707-.939.698-1.859 2.47-3.18 4.544-3.18"/>
    <path d="M10.385 3.603a2.163 2.163 0 0 1 2.995 0 2.014 2.014 0 0 1 0 2.907q-.175.168-.375.29v1.42a.25.25 0 0 1-.077.182l-.67.652.56.545c.104.1.104.264 0 .364l-.748.727a.27.27 0 0 1-.374 0l-.859-.834a.26.26 0 0 1-.078-.181V6.8a2 2 0 0 1-.374-.29 2.014 2.014 0 0 1 0-2.907m2.246.726a1.08 1.08 0 0 0-1.497 0 .377.377 0 0 0 0 .545c.155.15.407.15.562 0 .103-.1.27-.1.374 0 .155.15.406.15.561 0a.377.377 0 0 0 0-.545" clip-rule="evenodd"/>
    <path d="M6.588 3C7.931 3 9.02 4.106 9.02 5.47S7.93 7.942 6.588 7.942s-2.43-1.106-2.43-2.47S5.246 3 6.588 3"/>
</svg>
